images/icons/telegram.svg

<svg width="48" height="41" viewBox="0 0 48 41" fill="none" xmlns="http://www.w3.org/2000/svg">
<path d="M31.785 12.9557L15.8405 19.1042C14.7523 19.5413 14.7586 20.1483 15.6408 20.419L19.7344 21.696L29.2058 15.7201C29.6537 15.4477 30.0629 15.5942 29.7265 15.8928L22.0528 22.8183H22.051L22.0528 22.8192L21.7705 27.0387C22.1841 27.0387 22.3667 26.8489 22.5987 26.625L24.5871 24.6915L28.7229 27.7464C29.4855 28.1664 30.0332 27.9506 30.2229 27.0405L32.9379 14.2453C33.2158 13.1311 32.5126 12.6266 31.785 12.9557Z" fill="#83B3D3"/>
</svg>

<svg width="48" height="41" fill="none" xmlns="http://www.w3.org/2000/svg"><path d="M31.79 12.96 15.84 19.1c-1.09.44-1.08 1.05-.2 1.32l4.1 1.28 9.47-5.98c.44-.27.85-.13.52.17l-7.68 6.93-.28 4.22c.41 0 .6-.2.83-.41l1.99-1.94 4.13 3.06c.77.42 1.31.2 1.5-.7l2.72-12.8c.28-1.12-.43-1.62-1.15-1.3Z" fill="#83B3D3"/></svg>
